media/com_emundus/images/tchoozy/objects-illustrations/indicators.svg

<svg xmlns="http://www.w3.org/2000/svg" xmlns:xlink="http://www.w3.org/1999/xlink" id="Calque_1" data-name="Calque 1" viewBox="0 0 841.89 595.28"><defs><linearGradient id="Dégradé_secondaire1" x1="210.28" x2="256.6" y1="176.23" y2="222.54" data-name="Dégradé secondaire1" gradientTransform="rotate(-26.88 250.756 256.905)" gradientUnits="userSpaceOnUse"><stop offset="0" stop-color="#5b5a72"/><stop offset="1" stop-color="#b0b0bf"/></linearGradient><linearGradient xlink:href="#Dégradé_secondaire1" id="Dégradé_secondaire1-2" x1="505.75" x2="676.09" y1="236.77" y2="407.11" data-name="Dégradé secondaire1"/><linearGradient xlink:href="#Dégradé_secondaire1" id="Dégradé_secondaire1-3" x1="504.14" x2="711.4" y1="330.33" y2="330.33" data-name="Dégradé secondaire1" gradientTransform="rotate(17.49 602.58 332.011)"/><linearGradient xlink:href="#Dégradé_secondaire1" id="Dégradé_secondaire1-4" x1="297.11" x2="553.95" y1="128.85" y2="385.69" data-name="Dégradé secondaire1"/><style>.cls-4{stroke-linecap:round}.cls-5{fill:#fff}.cls-6{fill:#5b5a72}.cls-4{fill:none;stroke:url(#Dégradé_secondaire1);stroke-linejoin:round;stroke-width:6.27px}</style></defs><path d="M131.86 470.55c-.4 0-.79-.1-1.16-.28-.59-.31-1.03-.83-1.23-1.47l-20.41-64.79c-.2-.63-.14-1.32.17-1.91.31-.59.83-1.03 1.47-1.23l43.43-13.68c.25-.08.5-.12.75-.12 1.06 0 2.05.68 2.38 1.75l20.41 64.79c.2.63.14 1.32-.17 1.91-.31.59-.83 1.03-1.47 1.23l-43.43 13.68c-.25.08-.5.12-.75.12Z" class="cls-6"/><path d="m154.89 389.58 20.41 64.79-43.43 13.68-20.41-64.79 43.43-13.68m0-5c-.5 0-1 .07-1.5.23l-43.43 13.68a4.996 4.996 0 0 0-3.26 6.27l20.41 64.79a5.004 5.004 0 0 0 6.27 3.27l43.43-13.68c2.63-.83 4.1-3.64 3.27-6.27l-20.41-64.79a5.004 5.004 0 0 0-4.77-3.5Z" class="cls-5"/><path d="M181.78 454.83a2.49 2.49 0 0 1-2.38-1.75l-41.28-131.04c-.2-.63-.14-1.32.17-1.91.31-.59.83-1.03 1.47-1.23l43.43-13.68c.25-.08.5-.12.75-.12.4 0 .79.1 1.16.28.59.31 1.03.83 1.23 1.47l41.28 131.04c.2.63.14 1.32-.17 1.91-.31.59-.83 1.03-1.47 1.23l-43.43 13.68c-.25.08-.5.12-.75.12Z" class="cls-6"/><path d="m183.94 307.6 41.28 131.04-43.43 13.68-41.28-131.04 43.43-13.68m0-5c-.5 0-1 .07-1.5.23l-43.43 13.68a4.996 4.996 0 0 0-3.26 6.27l41.28 131.04c.4 1.26 1.28 2.32 2.46 2.93.72.38 1.51.57 2.31.57.51 0 1.01-.08 1.5-.23l43.43-13.68c2.63-.83 4.1-3.64 3.27-6.27L188.72 306.1a5.004 5.004 0 0 0-4.77-3.5Z" class="cls-5"/><path d="M231.7 439.1c-.4 0-.79-.1-1.16-.28-.59-.31-1.03-.83-1.23-1.47l-35.27-111.98c-.2-.63-.14-1.32.17-1.91.31-.59.83-1.03 1.47-1.23l43.43-13.68c.25-.08.5-.12.75-.12 1.06 0 2.05.68 2.38 1.75l35.27 111.98c.42 1.32-.32 2.72-1.63 3.14l-43.43 13.68c-.25.08-.5.12-.75.12Z" class="cls-6"/><path d="m239.86 310.95 35.27 111.98-43.43 13.68-35.27-111.98 43.43-13.68m0-5c-.5 0-1 .07-1.5.23l-43.43 13.68a4.996 4.996 0 0 0-3.26 6.27l35.27 111.98a5.004 5.004 0 0 0 6.27 3.27l43.43-13.68a4.996 4.996 0 0 0 3.26-6.27l-35.27-111.98a5.004 5.004 0 0 0-4.77-3.5Z" class="cls-5"/><path d="M281.61 423.38c-.4 0-.79-.1-1.16-.28-.59-.31-1.03-.83-1.23-1.47l-54.51-173.05c-.42-1.32.32-2.72 1.63-3.14l43.43-13.68c.25-.08.5-.12.75-.12.4 0 .79.1 1.16.28.59.31 1.03.83 1.23 1.47l54.51 173.05c.41 1.32-.32 2.72-1.63 3.14l-43.43 13.68c-.25.08-.5.12-.75.12Z" class="cls-6"/><path d="m270.53 234.15 54.51 173.05-43.43 13.68-54.51-173.05 43.43-13.68m0-5c-.5 0-1 .07-1.5.23l-43.43 13.68a4.996 4.996 0 0 0-3.26 6.27l54.51 173.05a5.004 5.004 0 0 0 6.27 3.27l43.43-13.68a4.996 4.996 0 0 0 3.26-6.27L275.3 232.65a5.004 5.004 0 0 0-4.77-3.5Z" class="cls-5"/><path d="M331.53 407.66c-.4 0-.79-.1-1.16-.28-.59-.31-1.03-.83-1.23-1.47L258.6 181.96c-.41-1.32.32-2.72 1.63-3.14l43.43-13.68c.25-.08.5-.12.75-.12.4 0 .79.1 1.16.28.59.31 1.03.83 1.23 1.47l70.54 223.95c.42 1.32-.32 2.72-1.63 3.14l-43.43 13.68c-.25.08-.5.12-.75.12Z" class="cls-6"/><path d="m304.42 167.52 70.54 223.95-43.43 13.68-70.54-223.95 43.43-13.68m0-5c-.51 0-1.01.08-1.5.23l-43.43 13.68c-2.63.83-4.1 3.64-3.27 6.27l70.54 223.95a5.004 5.004 0 0 0 6.27 3.27l43.43-13.68c2.63-.83 4.1-3.64 3.27-6.27l-70.54-223.95a4.996 4.996 0 0 0-2.46-2.93c-.72-.38-1.51-.57-2.31-.57Z" class="cls-5"/><path d="M154.38 275.96s57.71-29.95 83.05-105.3" class="cls-4"/><path d="m216.09 178.78 26.97-34.82 9.26 43.34" class="cls-4"/><path d="M708.61 363.7c-3.1 9.84-7.54 18.9-13.06 27.02l-84.94-60.61 30.35-96.31c54.55 17.19 84.84 75.35 67.64 129.9Z" style="stroke:#b0b0bf;fill:#fff;stroke-linecap:round;stroke-miterlimit:10;stroke-width:4px"/><path d="m610.62 330.11 84.94 60.61c-25.01 36.91-72.14 54.71-116.84 40.62-54.55-17.19-84.83-75.35-67.64-129.9 17.19-54.55 75.35-84.83 129.9-67.64l-30.35 96.31Z" style="stroke-linecap:round;stroke-miterlimit:10;stroke-width:4px;fill:url(#Dégradé_secondaire1-2);stroke:url(#Dégradé_secondaire1-3)"/><path d="M333.8 109.15h187.01c10.98 0 19.89 8.91 19.89 19.89v260.01c0 10.98-8.91 19.89-19.89 19.89H333.8c-10.98 0-19.89-8.91-19.89-19.89V129.04c0-10.98 8.91-19.89 19.89-19.89Z" style="fill:url(#Dégradé_secondaire1-4)"/><path d="M520.81 111.89c9.47 0 17.15 7.68 17.15 17.15v260.01c0 9.47-7.68 17.15-17.15 17.15H333.8c-9.47 0-17.15-7.68-17.15-17.15V129.04c0-9.47 7.68-17.15 17.15-17.15h187.01m0-5.47H333.8c-12.48 0-22.62 10.15-22.62 22.62v260.01c0 12.48 10.15 22.62 22.62 22.62h187.01c12.48 0 22.62-10.15 22.62-22.62V129.04c0-12.48-10.15-22.62-22.62-22.62Z" class="cls-5"/><rect width="172.28" height="51.11" x="339.81" y="136.09" class="cls-5" rx="9.51" ry="9.51"/><rect width="47.89" height="47.89" x="339.81" y="211.15" class="cls-5" rx="7.68" ry="7.68"/><rect width="47.89" height="47.89" x="464.2" y="211.15" class="cls-5" rx="7.68" ry="7.68"/><rect width="47.89" height="47.89" x="402" y="211.15" class="cls-5" rx="7.68" ry="7.68"/><rect width="47.89" height="47.89" x="339.81" y="273.9" class="cls-5" rx="7.68" ry="7.68"/><rect width="47.89" height="47.89" x="464.2" y="273.9" class="cls-5" rx="7.68" ry="7.68"/><rect width="47.89" height="47.89" x="402" y="273.9" class="cls-5" rx="7.68" ry="7.68"/><rect width="47.89" height="47.89" x="339.81" y="336.64" class="cls-5" rx="7.68" ry="7.68"/><rect width="47.89" height="47.89" x="464.2" y="336.64" class="cls-5" rx="7.68" ry="7.68"/><rect width="47.89" height="47.89" x="402" y="336.64" class="cls-5" rx="7.68" ry="7.68"/><path d="M433.22 148.53v10.03m0 5.78v10.03m11.55-25.84v10.03m0 5.78v10.03m17.33-25.84v10.03m-3.99-14.27h-10.03m10.03 34.33h-10.03m14.02-14.28v10.03m11.1-25.84v10.03m0 5.78v10.03m17.33-25.84v10.03m-3.98-14.27h-10.04m10.04 34.33h-10.04m14.02-14.28v10.03" style="stroke:#5b5a72;stroke-width:4.21px;fill:none;stroke-linecap:round;stroke-miterlimit:10"/></svg>

<svg xmlns="http://www.w3.org/2000/svg" xmlns:xlink="http://www.w3.org/1999/xlink" id="Calque_1" data-name="Calque 1" viewBox="0 0 841.89 595.28"><defs><linearGradient id="Dégradé_secondaire1" x1="210.28" x2="256.6" y1="176.23" y2="222.54" data-name="Dégradé secondaire1" gradientTransform="rotate(-26.88 250.756 256.905)" gradientUnits="userSpaceOnUse"><stop offset="0" stop-color="#5b5a72"/><stop offset="1" stop-color="#b0b0bf"/></linearGradient><linearGradient xlink:href="#Dégradé_secondaire1" id="Dégradé_secondaire1-2" x1="505.75" x2="676.09" y1="236.77" y2="407.11" data-name="Dégradé secondaire1"/><linearGradient xlink:href="#Dégradé_secondaire1" id="Dégradé_secondaire1-3" x1="504.14" x2="711.4" y1="330.33" y2="330.33" data-name="Dégradé secondaire1" gradientTransform="rotate(17.49 602.58 332.011)"/><linearGradient xlink:href="#Dégradé_secondaire1" id="Dégradé_secondaire1-4" x1="297.11" x2="553.95" y1="128.85" y2="385.69" data-name="Dégradé secondaire1"/><style>.cls-3{stroke-miterlimit:10}.cls-3,.cls-4{stroke-linecap:round}.cls-5{fill:#fff}.cls-6{fill:#5b5a72}.cls-3,.cls-4{stroke:#5b5a72;stroke-width:4.21px;fill:none}.cls-4{stroke:url(#Dégradé_secondaire1);stroke-linejoin:round;stroke-width:6.27px}</style></defs><path d="M131.86 470.55c-.4 0-.79-.1-1.16-.28-.59-.31-1.03-.83-1.23-1.47l-20.41-64.79c-.2-.63-.14-1.32.17-1.91.31-.59.83-1.03 1.47-1.23l43.43-13.68c.25-.08.5-.12.75-.12 1.06 0 2.05.68 2.38 1.75l20.41 64.79c.2.63.14 1.32-.17 1.91-.31.59-.83 1.03-1.47 1.23l-43.43 13.68c-.25.08-.5.12-.75.12Z" class="cls-6"/><path d="m154.89 389.58 20.41 64.79-43.43 13.68-20.41-64.79 43.43-13.68m0-5c-.5 0-1 .07-1.5.23l-43.43 13.68a4.996 4.996 0 0 0-3.26 6.27l20.41 64.79a5.004 5.004 0 0 0 6.27 3.27l43.43-13.68c2.63-.83 4.1-3.64 3.27-6.27l-20.41-64.79a5.004 5.004 0 0 0-4.77-3.5Z" class="cls-5"/><path d="M181.78 454.83a2.49 2.49 0 0 1-2.38-1.75l-41.28-131.04c-.2-.63-.14-1.32.17-1.91.31-.59.83-1.03 1.47-1.23l43.43-13.68c.25-.08.5-.12.75-.12.4 0 .79.1 1.16.28.59.31 1.03.83 1.23 1.47l41.28 131.04c.2.63.14 1.32-.17 1.91-.31.59-.83 1.03-1.47 1.23l-43.43 13.68c-.25.08-.5.12-.75.12Z" class="cls-6"/><path d="m183.94 307.6 41.28 131.04-43.43 13.68-41.28-131.04 43.43-13.68m0-5c-.5 0-1 .07-1.5.23l-43.43 13.68a4.996 4.996 0 0 0-3.26 6.27l41.28 131.04c.4 1.26 1.28 2.32 2.46 2.93.72.38 1.51.57 2.31.57.51 0 1.01-.08 1.5-.23l43.43-13.68c2.63-.83 4.1-3.64 3.27-6.27L188.72 306.1a5.004 5.004 0 0 0-4.77-3.5Z" class="cls-5"/><path d="M231.7 439.1c-.4 0-.79-.1-1.16-.28-.59-.31-1.03-.83-1.23-1.47l-35.27-111.98c-.2-.63-.14-1.32.17-1.91.31-.59.83-1.03 1.47-1.23l43.43-13.68c.25-.08.5-.12.75-.12 1.06 0 2.05.68 2.38 1.75l35.27 111.98c.42 1.32-.32 2.72-1.63 3.14l-43.43 13.68c-.25.08-.5.12-.75.12Z" class="cls-6"/><path d="m239.86 310.95 35.27 111.98-43.43 13.68-35.27-111.98 43.43-13.68m0-5c-.5 0-1 .07-1.5.23l-43.43 13.68a4.996 4.996 0 0 0-3.26 6.27l35.27 111.98a5.004 5.004 0 0 0 6.27 3.27l43.43-13.68a4.996 4.996 0 0 0 3.26-6.27l-35.27-111.98a5.004 5.004 0 0 0-4.77-3.5Z" class="cls-5"/><path d="M281.61 423.38c-.4 0-.79-.1-1.16-.28-.59-.31-1.03-.83-1.23-1.47l-54.51-173.05c-.42-1.32.32-2.72 1.63-3.14l43.43-13.68c.25-.08.5-.12.75-.12.4 0 .79.1 1.16.28.59.31 1.03.83 1.23 1.47l54.51 173.05c.41 1.32-.32 2.72-1.63 3.14l-43.43 13.68c-.25.08-.5.12-.75.12Z" class="cls-6"/><path d="m270.53 234.15 54.51 173.05-43.43 13.68-54.51-173.05 43.43-13.68m0-5c-.5 0-1 .07-1.5.23l-43.43 13.68a4.996 4.996 0 0 0-3.26 6.27l54.51 173.05a5.004 5.004 0 0 0 6.27 3.27l43.43-13.68a4.996 4.996 0 0 0 3.26-6.27L275.3 232.65a5.004 5.004 0 0 0-4.77-3.5Z" class="cls-5"/><path d="M331.53 407.66c-.4 0-.79-.1-1.16-.28-.59-.31-1.03-.83-1.23-1.47L258.6 181.96c-.41-1.32.32-2.72 1.63-3.14l43.43-13.68c.25-.08.5-.12.75-.12.4 0 .79.1 1.16.28.59.31 1.03.83 1.23 1.47l70.54 223.95c.42 1.32-.32 2.72-1.63 3.14l-43.43 13.68c-.25.08-.5.12-.75.12Z" class="cls-6"/><path d="m304.42 167.52 70.54 223.95-43.43 13.68-70.54-223.95 43.43-13.68m0-5c-.51 0-1.01.08-1.5.23l-43.43 13.68c-2.63.83-4.1 3.64-3.27 6.27l70.54 223.95a5.004 5.004 0 0 0 6.27 3.27l43.43-13.68c2.63-.83 4.1-3.64 3.27-6.27l-70.54-223.95a4.996 4.996 0 0 0-2.46-2.93c-.72-.38-1.51-.57-2.31-.57Z" class="cls-5"/><path d="M154.38 275.96s57.71-29.95 83.05-105.3" class="cls-4"/><path d="m216.09 178.78 26.97-34.82 9.26 43.34" class="cls-4"/><path d="M708.61 363.7c-3.1 9.84-7.54 18.9-13.06 27.02l-84.94-60.61 30.35-96.31c54.55 17.19 84.84 75.35 67.64 129.9Z" style="stroke:#b0b0bf;fill:#fff;stroke-linecap:round;stroke-miterlimit:10;stroke-width:4px"/><path d="m610.62 330.11 84.94 60.61c-25.01 36.91-72.14 54.71-116.84 40.62-54.55-17.19-84.83-75.35-67.64-129.9 17.19-54.55 75.35-84.83 129.9-67.64l-30.35 96.31Z" style="stroke-linecap:round;stroke-miterlimit:10;stroke-width:4px;fill:url(#Dégradé_secondaire1-2);stroke:url(#Dégradé_secondaire1-3)"/><path d="M333.8 109.15h187.01c10.98 0 19.89 8.91 19.89 19.89v260.01c0 10.98-8.91 19.89-19.89 19.89H333.8c-10.98 0-19.89-8.91-19.89-19.89V129.04c0-10.98 8.91-19.89 19.89-19.89Z" style="fill:url(#Dégradé_secondaire1-4)"/><path d="M520.81 111.89c9.47 0 17.15 7.68 17.15 17.15v260.01c0 9.47-7.68 17.15-17.15 17.15H333.8c-9.47 0-17.15-7.68-17.15-17.15V129.04c0-9.47 7.68-17.15 17.15-17.15h187.01m0-5.47H333.8c-12.48 0-22.62 10.15-22.62 22.62v260.01c0 12.48 10.15 22.62 22.62 22.62h187.01c12.48 0 22.62-10.15 22.62-22.62V129.04c0-12.48-10.15-22.62-22.62-22.62Z" class="cls-5"/><rect width="172.28" height="51.11" x="339.81" y="136.09" class="cls-5" rx="9.51" ry="9.51"/><rect width="47.89" height="47.89" x="339.81" y="211.15" class="cls-5" rx="7.68" ry="7.68"/><rect width="47.89" height="47.89" x="464.2" y="211.15" class="cls-5" rx="7.68" ry="7.68"/><rect width="47.89" height="47.89" x="402" y="211.15" class="cls-5" rx="7.68" ry="7.68"/><rect width="47.89" height="47.89" x="339.81" y="273.9" class="cls-5" rx="7.68" ry="7.68"/><rect width="47.89" height="47.89" x="464.2" y="273.9" class="cls-5" rx="7.68" ry="7.68"/><rect width="47.89" height="47.89" x="402" y="273.9" class="cls-5" rx="7.68" ry="7.68"/><rect width="47.89" height="47.89" x="339.81" y="336.64" class="cls-5" rx="7.68" ry="7.68"/><rect width="47.89" height="47.89" x="464.2" y="336.64" class="cls-5" rx="7.68" ry="7.68"/><rect width="47.89" height="47.89" x="402" y="336.64" class="cls-5" rx="7.68" ry="7.68"/><path d="M433.22 148.53v10.03M433.22 164.34v10.03M444.77 148.53v10.03M444.77 164.34v10.03M462.1 148.53v10.03M458.11 144.29h-10.03M458.11 178.62h-10.03M462.1 164.34v10.03M473.2 148.53v10.03M473.2 164.34v10.03M490.53 148.53v10.03M486.55 144.29h-10.04M486.55 178.62h-10.04M490.53 164.34v10.03" class="cls-3"/></svg>
